X:210
T:Baron Manchausen's Quadrilles No.5. Le4.210
M:2/4
L:1/8
Q:2/4=50
B:L.Leadley MS#4 c1850
Z:Village Music Project 2016 Steve Mansfield
K:F
c=B//c//d//c// AA | ^G3 d | ^G3 d | =G2 G/^c=c/ |
AB/c/ (B/A/G/F/) | B//c//B//A//B/d/ fd | c2 c/A/G/A/ | FF F2 ||
cf/e/ df | c'd'/c'/ (ba) | gg/^f/ .g.e | z _A/A/ AB//A//G//A// |
=AA AB//A//^G//A// | BB=BB | c!>!e2 d | ccc z !segno! ||
.af.g.a | .f.f.f.d' | .a.a.a.c' | .a .a .a z |
.a.f.g.a | .d'.^g a2- | a.f.g.a | f/f/f/f/ ff |]

